svg/u1f4a3.svg

<svg viewBox="0 0 128 128" xmlns="http://www.w3.org/2000/svg">
  <g>
    <g>
      <polygon points="81.13,29.99 62.79,30.17 78.47,21.62 74.76,8.38 85.17,16.28 95.64,8.27 92.89,19.05 110.15,21.03 92.19,28.03 85.03,40.53 " fill="#FFE36C"/>
      <path d="M92.27,13.37l-0.76,2.96l-1.13,4.45l4.56,0.52l6.94,0.79l-9.76,3.81l-1.32,0.51l-0.7,1.23 l-4.68,8.17l-1.92-5.2l-0.98-2.65L79.7,28l-8.91,0.09l7.24-3.95l2.8-1.53l-0.86-3.07l-1.67-5.96l4.44,3.37l2.43,1.84l2.42-1.85 L92.27,13.37 M85.16,13.76L72.49,4.15c-0.41-0.31-0.98,0.08-0.84,0.57l4.46,15.91l-19.44,10.6c-0.49,0.27-0.3,1.01,0.26,1 l22.81-0.23l4.5,12.17c0.16,0.43,0.74,0.47,0.97,0.08l8.37-14.62l22.82-8.9c0.52-0.2,0.42-0.97-0.13-1.03L95.4,17.32l3.22-12.65 c0.13-0.49-0.44-0.87-0.84-0.56L85.16,13.76z" fill="#FF8F00"/>
    </g>
    <path d="M94.59,44.29c-1.27-0.18-7.6,6.13-12.17,2.17c0,0-0.01,0.01-0.01,0.01 c-2.63-2.13-5.53-3.99-8.72-5.51c-21.75-10.37-47.8-1.15-58.18,20.61c-10.37,21.75-1.15,47.8,20.61,58.18 c21.75,10.37,47.8,1.15,58.18-20.61c3.37-7.06,4.67-14.57,4.14-21.85c-0.04-0.51-0.13-1.64,0.12-2.48c1.71-5.74,7.93-8.6,7.8-8.87 C106.23,65.66,95.87,44.47,94.59,44.29z" fill="#4D4D4D"/>
    <ellipse cx="100.46" cy="55.12" rx="5.83" ry="12.33" fill="#757575" transform="matrix(0.8667 -0.4988 0.4988 0.8667 -14.1049 57.4504)"/>
    <ellipse cx="102.35" cy="55.1" rx="2.29" ry="3.52" fill="#212121" transform="matrix(0.866 -0.5 0.5 0.866 -13.8369 58.5564)"/>
    <path d="M53.9,52.57c2.74,7.78-1.27,12.42-6.46,15.39c-2.48,1.42-5.36,2.04-7.87,3.41 c-4.88,2.66-7.84,7.79-12.09,11.36c-1.06,0.89-2.27,1.71-3.65,1.86c-1.84,0.2-3.64-0.88-4.74-2.37C18,80.72,13.53,66.5,29.85,51.95 C37.14,45.45,50.9,44.04,53.9,52.57z" opacity="0.9" fill="#757575"/>
    <linearGradient id="SVGID_1_" gradientUnits="userSpaceOnUse" x1="42.079" x2="83.8122" y1="34.5524" y2="48.0625">
      <stop offset="0" stop-color="#FFF9C4" stop-opacity="0.1"/>
      <stop offset="1.516624e-03" stop-color="#FFF9C4" stop-opacity="0.1007"/>
      <stop offset="0.3781" stop-color="#FFFCA6" stop-opacity="0.2626"/>
      <stop offset="0.7007" stop-color="#FFFE94" stop-opacity="0.4014"/>
      <stop offset="0.93" stop-color="#FFFF8D" stop-opacity="0.5"/>
    </linearGradient>
    <path d="M41.86,38.72c3.69,0.12,11.23,0.17,20.77,3.92c3.21,1.26,5.92,3.02,8.83,4.82 c2.35,1.45,5.02,2.66,7.77,2.4c0.97-0.09,2.04-0.47,2.42-1.37c0.23-0.56,0.21-1.13,0.01-1.69c-0.24-0.66-1.06-1.58-2.32-2.61 c-1.77-1.19-3.65-2.28-5.64-3.23C63.34,36.02,52.01,35.53,41.86,38.72z" fill="url(#SVGID_1_)"/>
    <linearGradient id="SVGID_2_" gradientUnits="userSpaceOnUse" x1="102.0288" x2="91.1394" y1="57.3021" y2="42.9353">
      <stop offset="0.1096" stop-color="#FFF9C4" stop-opacity="0"/>
      <stop offset="1" stop-color="#FFFF8D"/>
    </linearGradient>
    <path d="M102.13,47.64c-0.05-0.05-0.1-0.11-0.15-0.16c-0.01-0.01-0.01-0.02-0.02-0.02 c-0.23-0.23-0.46-0.45-0.69-0.67c-0.03-0.03-0.07-0.06-0.1-0.1c-2.53-2.29-5.12-3.26-6.86-2.27c-2.79,1.6-2.3,7.69,1.1,13.59 c0.73,1.26,1.53,2.41,2.37,3.43c-0.1-0.29-3.84-11.52-1.51-14.53C98.26,44.37,101.78,47.34,102.13,47.64z" fill="url(#SVGID_2_)"/>
    <path d="M88.16,74.53c-2.42-1.59-4.79-3.75-6.26-9.18c-0.19-0.69-0.83-4.12,1.02-4.67 c1.6-0.48,2.79,2.15,4.17,4.46c1.5,2.53,3.93,4.72,6.54,6.15c0.76,0.41,4.29,2,1.97,4.22C94.07,76.96,89.58,75.47,88.16,74.53z" fill="#212121"/>
    <path d="M100.85,53.44c0.1-0.04,10.25-4.65,9.37-11.34c-0.58-4.42-2.3-6.62-11.4-8.78 c-8.9-2.11-13.25-6.24-13.43-6.42c-0.89-0.86-0.92-2.29-0.05-3.19c0.86-0.89,2.28-0.92,3.18-0.06c0.07,0.06,3.77,3.48,11.35,5.28 c8.82,2.09,13.79,4.72,14.83,12.57c1.16,8.78-8.52,14.25-11.29,15.7C101.69,58.11,99.71,53.94,100.85,53.44z" fill="#C69461"/>
    <path d="M88.5,23.66c-0.89-0.86-2.32-0.83-3.18,0.06c-0.86,0.9-0.84,2.32,0.05,3.19 c0.13,0.13,2.5,2.37,7.25,4.39l0.95-1.66l3.66-1.43C91.42,26.35,88.56,23.71,88.5,23.66z" fill="#F6BC41"/>
  </g>
</svg>

<svg viewBox="0 0 128 128" xmlns="http://www.w3.org/2000/svg">
  <defs>
    <linearGradient id="SVGID_1_" gradientUnits="userSpaceOnUse" x1="42.079" x2="83.8122" y1="34.5524" y2="48.0625">
      <stop offset="0" stop-color="#FFF9C4" stop-opacity="0.1"/>
      <stop offset="1.516624e-03" stop-color="#FFF9C4" stop-opacity="0.1007"/>
      <stop offset="0.3781" stop-color="#FFFCA6" stop-opacity="0.2626"/>
      <stop offset="0.7007" stop-color="#FFFE94" stop-opacity="0.4014"/>
      <stop offset="0.93" stop-color="#FFFF8D" stop-opacity="0.5"/>
    </linearGradient>
    <linearGradient id="SVGID_2_" gradientUnits="userSpaceOnUse" x1="102.0288" x2="91.1394" y1="57.3021" y2="42.9353">
      <stop offset="0.1096" stop-color="#FFF9C4" stop-opacity="0"/>
      <stop offset="1" stop-color="#FFFF8D"/>
    </linearGradient>
  </defs>
  <path d="M81.13,29.99 L62.79,30.17 L78.47,21.62 L74.76,8.38 L85.17,16.28 L95.64,8.27 L92.89,19.05 L110.15,21.03 L92.19,28.03 L85.03,40.53 Z" fill="#FFE36C"/>
  <path d="M92.27,13.37 L91.51,16.33 L90.38,20.78 L94.94,21.3 L101.88,22.09 L92.12,25.9 L90.8,26.41 L90.1,27.64 L85.42,35.81 L83.5,30.61 L82.52,27.96 L79.7,28 L70.79,28.09 L78.03,24.14 L80.83,22.61 L79.97,19.54 L78.3,13.58 L82.74,16.95 L85.17,18.79 L87.59,16.94 L92.27,13.37 M85.16,13.76 L72.49,4.15 C72.08,3.84 71.51,4.23 71.65,4.72 L76.11,20.63 L56.67,31.23 C56.18,31.5 56.37,32.24 56.93,32.23 L79.74,32 L84.24,44.17 C84.4,44.6 84.98,44.64 85.21,44.25 L93.58,29.63 L116.4,20.73 C116.92,20.53 116.82,19.76 116.27,19.7 L95.4,17.32 L98.62,4.67 C98.75,4.18 98.18,3.8 97.78,4.11 L85.16,13.76 Z" fill="#FF8F00"/>
  <path d="M94.59,44.29 C93.32,44.11 86.99,50.42 82.42,46.46 C82.42,46.46 82.41,46.47 82.41,46.47 C79.78,44.34 76.88,42.48 73.69,40.96 C51.94,30.59 25.89,39.81 15.51,61.57 C5.14,83.32 14.36,109.37 36.12,119.75 C57.87,130.12 83.92,120.9 94.3,99.14 C97.67,92.08 98.97,84.57 98.44,77.29 C98.4,76.78 98.31,75.65 98.56,74.81 C100.27,69.07 106.49,66.21 106.36,65.94 C106.23,65.66 95.87,44.47 94.59,44.29 Z" fill="#4D4D4D"/>
  <path d="M105.51,52.205 C108.907,58.107 109.398,64.194 106.608,65.8 C103.817,67.406 98.801,63.923 95.405,58.021 C92.008,52.12 91.517,46.033 94.307,44.427 C97.098,42.821 102.114,46.304 105.51,52.205 Z" fill="#757575"/>
  <path d="M104.331,53.953 C105.303,55.637 105.203,57.514 104.108,58.146 C103.013,58.779 101.337,57.927 100.365,56.243 C99.393,54.559 99.493,52.682 100.588,52.05 C101.683,51.417 103.359,52.269 104.331,53.953 Z" fill="#212121"/>
  <path d="M53.9,52.57 C56.64,60.35 52.63,64.99 47.44,67.96 C44.96,69.38 42.08,70 39.57,71.37 C34.69,74.03 31.73,79.16 27.48,82.73 C26.42,83.62 25.21,84.44 23.83,84.59 C21.99,84.79 20.19,83.71 19.09,82.22 C18,80.72 13.53,66.5 29.85,51.95 C37.14,45.45 50.9,44.04 53.9,52.57 Z" fill="#757575" opacity="0.9"/>
  <path d="M41.86,38.72 C45.55,38.84 53.09,38.89 62.63,42.64 C65.84,43.9 68.55,45.66 71.46,47.46 C73.81,48.91 76.48,50.12 79.23,49.86 C80.2,49.77 81.27,49.39 81.65,48.49 C81.88,47.93 81.86,47.36 81.66,46.8 C81.42,46.14 80.6,45.22 79.34,44.19 C77.57,43 75.69,41.91 73.7,40.96 C63.34,36.02 52.01,35.53 41.86,38.72 Z" fill="url(#SVGID_1_)"/>
  <path d="M102.13,47.64 C102.08,47.59 102.03,47.53 101.98,47.48 C101.97,47.47 101.97,47.46 101.96,47.46 C101.73,47.23 101.5,47.01 101.27,46.79 C101.24,46.76 101.2,46.73 101.17,46.69 C98.64,44.4 96.05,43.43 94.31,44.42 C91.52,46.02 92.01,52.11 95.41,58.01 C96.14,59.27 96.94,60.42 97.78,61.44 C97.68,61.15 93.94,49.92 96.27,46.91 C98.26,44.37 101.78,47.34 102.13,47.64 Z" fill="url(#SVGID_2_)"/>
  <path d="M88.16,74.53 C85.74,72.94 83.37,70.78 81.9,65.35 C81.71,64.66 81.07,61.23 82.92,60.68 C84.52,60.2 85.71,62.83 87.09,65.14 C88.59,67.67 91.02,69.86 93.63,71.29 C94.39,71.7 97.92,73.29 95.6,75.51 C94.07,76.96 89.58,75.47 88.16,74.53 Z" fill="#212121"/>
  <path d="M100.85,53.44 C100.95,53.4 111.1,48.79 110.22,42.1 C109.64,37.68 107.92,35.48 98.82,33.32 C89.92,31.21 85.57,27.08 85.39,26.9 C84.5,26.04 84.47,24.61 85.34,23.71 C86.2,22.82 87.62,22.79 88.52,23.65 C88.59,23.71 92.29,27.13 99.87,28.93 C108.69,31.02 113.66,33.65 114.7,41.5 C115.86,50.28 106.18,55.75 103.41,57.2 C101.69,58.11 99.71,53.94 100.85,53.44 Z" fill="#C69461"/>
  <path d="M88.5,23.66 C87.61,22.8 86.18,22.83 85.32,23.72 C84.46,24.62 84.48,26.04 85.37,26.91 C85.5,27.04 87.87,29.28 92.62,31.3 L93.57,29.64 L97.23,28.21 C91.42,26.35 88.56,23.71 88.5,23.66 Z" fill="#F6BC41"/>
</svg>
